svg/regular/bx-injection.svg

<svg xmlns="http://www.w3.org/2000/svg" width="24" height="24"><path d="M20.84 7.4 22.25 6 18 1.75l-1.4 1.41L18 4.58 16.6 6l-2.13-2.13-1.41-1.42-1.41 1.42.7.71L3 13.92a2 2 0 0 0-.3 2.45L4 18.56l-2.25 2.28 1.41 1.41L5.44 20l2.19 1.31a2 2 0 0 0 1 .28 2 2 0 0 0 1.45-.59l9.34-9.34.71.7 1.42-1.41-1.42-1.42L18 7.4 19.42 6zM18 10.23l-9.34 9.35L6 18l-1.58-2.66.86-.87 2.83 2.83 1.42-1.41-2.83-2.83 1.41-1.41 2.83 2.82 1.41-1.41-2.83-2.83 1.42-1.41 2.83 2.83 1.41-1.42-2.83-2.83L13.77 6z"/></svg>

<svg xmlns="http://www.w3.org/2000/svg" width="24" height="24" viewBox="0 0 24 24"><path d="M20.84,7.4,22.25,6,18,1.75,16.6,3.16,18,4.58,16.6,6,14.47,3.87,13.06,2.45,11.65,3.87l.7.71L3,13.92a2,2,0,0,0-.3,2.45L4,18.56,1.75,20.84l1.41,1.41L5.44,20l2.19,1.31h0a2,2,0,0,0,1,.28A2,2,0,0,0,10.08,21l9.34-9.34.71.7,1.42-1.41L20.13,9.53,18,7.4,19.42,6ZM18,10.23,8.66,19.58h0L6,18,4.42,15.34l.86-.87L8.11,17.3l1.42-1.41L6.7,13.06l1.41-1.41,2.83,2.82,1.41-1.41L9.52,10.23l1.42-1.41,2.83,2.83,1.41-1.42L12.35,7.4,13.77,6Z"/></svg>
